X:1
T:Merry Conceit [2], The
M:6/8
L:1/8
S:Sharp - Country Dance Tunes  (1909)
Z:AK/Fiddler's Companion
K:Gmin
(B>AG A>Bc | d>cB f2)(c | fcd cAc | d>cA B3) |
(B>AG A>Bc | d>cB f2)(c | fcd cAc | d>cA B3 ||
|: (Acf A>GF | Ac2 f2)(A | BGB d>cB | fga b3) |
bbB d>=e^f | g2d B>AG | AdG F>=ED | A3 G3 :|

